X: 011
T: Betsy Bell
%R: march, reel
Z: 2014 John Chambers <jc:trillian.mit.edu>
B: Thompson "Twenty four Country Dances for the Year 1805" p.1 #1
F: http://folkopedia.efdss.org/images/2/2a/Thompson_24_1805.PDF 2014-8-13
M: 2/4
L: 1/8
K: C
G/F/ |\
EGce | cAA^c | de g/f/e/d/ | Bd GG/F/ |\
EGce | cAAa | g/f/e/d/ AB | c>dc :|
|: c/d/ |\
efea | cAA^c | dedf | BGGF |\
EGcf | cAAa | g/e/d/c/ B/c/d/B/ | c>dc :|
% - - - - - - - - - - - - - - - - - - - - - - - - -
%%begintext align
%% Change sides, back again, hands across,
%% back again, Cross over two Couple, hands
%% four with the bottom Cu: right & left at top.
%%endtext
% - - - - - - - - - - - - - - - - - - - - - - - - -
